X:90
T:Silver Spear
M:4/4
L:1/8
R:reel
K:Dmaj
|: FA (3AAA BAFA | dfed BcdA | FA (3AAA BAFA | dfed B2AG |
FA (3AAA BAFA | dfed Bdef | g3e f3e | dfed B2A2 :|
|: fa (3aaa bafa | gfed Bcde | fa (3aaa bafa | gfed B2A2 |
fa (3aaa bafa | gfed Bdef | g3e f3e | dfed B2A2 :|
